X:48
T:The contradiction
T:Miss Gunning's fancy reel
R:Reel
O:Ireland
B:O'Neill's 1503
B:Kerr's Second p31
S:O'Neill's 1503
Z:Transcription:John B. Walsh, Chords:Mike Long
M:C|
L:1/8
K:A
e [|\
"A"c2 (3({d}cBA) "E"(BE)ED|"A"CEAc "D"dfed|\
"A"c2 (3({d}cBA) "E"GABc|"(D)"defg "(A)"afed|
"A"c2 (3({d}cBA) "E"(BE)ED|"A"CEAc "D"dfed|\
"A"c2 (3({d}cBA) "E"GABg|"(D)"afec "A"~A2 A|]
g|\
"A"aA ~A2 (aA)cA|"E"GBEB EBEg|"A"aA ~A2 (aA)cA|"E"GBEB "A"cAAg|
"A"aA ~A2 (aA)cA|"E"GBEB EBEg|"A"agfe "D"fedc|"E"dEFG "A"A2|]
e2|:\
"A"ae(c'e) ae(c'e)|"E"be(d'e) be(d'e)|"A"c'e(e'e) c'e(e'e)|"D"dc"(E)"BA "A"(EA)A2:|
"A"cefe cefe|"D"dcBA "E"(BE)E2|"A"cefe cefe|"D"fa"(E)"gb "A"afed|
"A"cefe cefe|"D"(3(fga) ec "E"(BE)E2|"A"ecea "D"fdfa|"E"(gb)eg "A"(ae)fd|]
